source/img/footer/instagram-icon.svg

<svg width="23" height="22" viewBox="0 0 23 22" fill="none" xmlns="http://www.w3.org/2000/svg">
<path d="M22.5987 12.6944C22.5987 10.2944 22.2987 7.89439 22.2987 5.59439C22.2987 4.79439 22.1987 4.09439 22.0987 3.29439C21.9987 2.99439 21.9987 2.59439 21.8987 2.19439C21.5987 1.99439 21.6987 1.59439 21.3987 1.39439C20.9987 1.19439 20.1987 1.29439 19.6987 1.19439C18.9987 1.19439 18.3987 1.09438 17.7987 0.994385C15.8987 0.894385 13.7987 0.894386 11.7987 0.894386C9.7987 0.894386 7.79871 0.794385 6.0987 0.494385H3.8987C3.7987 0.494385 3.7987 0.594387 3.6987 0.594387C3.0987 0.594387 2.5987 0.794386 2.0987 0.894386C1.8987 0.994386 1.6987 1.09439 1.3987 1.19439C1.2987 1.39439 0.898702 1.29439 0.798702 1.59439C0.598702 1.79439 0.998702 2.09439 0.798702 2.19439V3.09439C0.998702 3.19439 0.798704 3.69439 0.898704 3.89439V4.89439C0.898704 6.19439 0.998703 7.29439 0.998703 8.59439C1.4987 11.3944 1.3987 15.0944 1.0987 17.9944C1.2987 18.5944 1.4987 19.0944 1.5987 19.6944C1.8987 20.1944 1.8987 20.7944 2.2987 21.1944C2.7987 21.3944 3.4987 21.3944 4.1987 21.3944C4.5987 21.4944 4.8987 21.6944 5.2987 21.6944C8.0987 21.4944 10.7987 21.4944 13.6987 21.4944C16.3987 21.6944 19.4987 21.6944 21.9987 21.2944C22.1987 21.1944 22.0987 20.7944 22.1987 20.4944C22.0987 20.0944 22.3987 20.0944 22.3987 19.6944C22.5987 17.5944 22.5987 15.1944 22.5987 12.6944ZM9.59871 6.49438C10.3987 6.29438 11.0987 6.19439 11.9987 6.19439C12.6987 6.29439 13.2987 6.49439 13.8987 6.69439C13.9987 6.89439 13.6987 7.19439 14.0987 7.39439C14.1987 7.39439 14.1987 7.39438 14.2987 7.49438C14.6987 7.49438 15.0987 7.69439 15.3987 7.89439C15.8987 7.99439 15.8987 8.39439 16.4987 8.29439C16.3987 8.49439 16.3987 8.79439 16.3987 9.09439C16.6987 10.2944 16.8987 11.8944 16.6987 13.3944C16.4987 13.5944 16.4987 13.7944 16.3987 14.0944C16.0987 14.3944 15.8987 14.8944 15.5987 15.1944C15.4987 15.3944 15.2987 15.5944 15.0987 15.6944C14.9987 15.8944 14.8987 16.1944 14.5987 16.1944C14.2987 16.3944 13.9987 16.1944 13.7987 16.0944C13.3987 16.2944 12.8987 16.3944 12.5987 16.6944C11.7987 16.5944 10.9987 16.4944 10.1987 16.3944C9.9987 16.2944 9.6987 16.0944 9.3987 16.0944C9.1987 15.8944 8.8987 15.6944 8.5987 15.5944C8.4987 15.4944 8.2987 15.4944 8.0987 15.3944C7.89871 15.3944 7.89871 15.1944 7.5987 15.1944C7.4987 14.7944 7.1987 14.5944 7.0987 14.0944C6.89871 13.7944 6.7987 13.2944 6.5987 12.8944C6.5987 11.4944 6.6987 10.1944 6.9987 9.09439C7.2987 8.49439 7.7987 7.99439 8.0987 7.39439C8.2987 7.39439 8.4987 7.29439 8.4987 7.09439C8.7987 7.19439 8.8987 6.99438 9.1987 6.99438C9.3987 6.99438 9.39871 6.69438 9.59871 6.49438ZM7.8987 3.79439C7.7987 3.49439 7.7987 3.09439 7.7987 2.69439C7.7987 2.39439 8.0987 2.39439 8.0987 2.19439C8.0987 2.09439 7.9987 2.09439 7.8987 2.09439C7.9987 1.99439 8.5987 1.99439 8.6987 2.09439C8.7987 2.59439 8.2987 2.59439 8.1987 2.79439C8.1987 2.99439 8.4987 2.79439 8.6987 2.89439C8.6987 3.79439 8.5987 4.39439 8.6987 5.09439H8.1987C8.1987 5.29439 8.3987 5.29439 8.6987 5.29439C8.5987 5.59439 8.7987 5.69439 8.7987 5.89439C8.5987 6.09439 8.0987 5.89438 7.6987 5.99438C7.6987 5.39438 7.9987 4.59439 7.8987 3.79439ZM7.1987 2.19439C7.2987 2.19439 7.2987 2.19439 7.3987 2.29439C7.5987 2.59439 7.3987 2.99439 7.2987 3.19439C7.0987 2.99439 7.2987 2.49439 7.1987 2.19439ZM7.3987 3.99438C7.2987 3.89438 7.1987 3.79438 7.1987 3.49438C7.3987 3.59438 7.3987 3.79438 7.3987 3.99438ZM7.3987 5.39439C7.2987 5.49439 7.2987 5.39439 7.2987 5.19439C7.3987 5.09439 7.3987 5.29439 7.3987 5.39439ZM7.1987 5.59439C7.3987 5.59439 7.2987 5.79439 7.3987 5.79439C7.3987 5.99439 7.0987 5.99439 6.9987 5.89439C7.0987 5.79439 7.1987 5.69439 7.1987 5.59439ZM4.8987 4.39439C4.8987 4.29439 4.8987 4.19439 4.7987 4.19439C4.6987 3.49439 4.8987 2.79439 4.7987 2.19439C5.0987 1.99439 5.5987 2.19439 5.8987 2.09439V3.19439C5.7987 3.29439 5.6987 3.29439 5.4987 3.29439C5.3987 3.59439 5.7987 3.39439 5.8987 3.59439C5.8987 4.49439 5.7987 5.39438 6.0987 5.99438C5.4987 5.89438 5.1987 6.09439 4.6987 6.09439C4.7987 5.49439 4.6987 4.69438 5.1987 4.49438C5.1987 4.39438 4.8987 4.49439 4.8987 4.39439ZM4.3987 4.39439C4.1987 4.39439 4.1987 3.89439 4.2987 3.79439C4.5987 3.79439 4.4987 4.29439 4.3987 4.39439ZM4.1987 5.39439C4.2987 5.09439 4.1987 5.09439 4.2987 4.69439C4.4987 4.69439 4.4987 5.49439 4.1987 5.39439ZM4.3987 3.29439C4.0987 3.39439 4.0987 2.99439 4.1987 2.89439C4.4987 2.89439 4.5987 3.19439 4.3987 3.29439ZM4.3987 2.19439C4.3987 2.39439 4.2987 2.39438 4.2987 2.49438C4.0987 2.49438 4.1987 2.29439 4.0987 2.29439C4.1987 2.19439 4.2987 2.19439 4.3987 2.19439ZM4.1987 5.89439C4.2987 5.89439 4.2987 6.19439 4.0987 6.09439C4.1987 6.09439 4.1987 5.99439 4.1987 5.89439ZM3.4987 2.19439C3.4987 2.49439 3.0987 2.49439 3.0987 2.19439H3.4987ZM2.4987 2.29439C2.4987 2.49439 2.1987 2.49439 2.0987 2.69439C1.8987 2.49439 2.1987 2.19439 2.4987 2.29439ZM2.0987 2.99438C2.2987 2.79438 2.5987 2.59439 2.7987 2.39439C2.7987 2.29439 2.8987 2.29439 2.8987 2.19439H3.0987C3.1987 2.59439 2.7987 2.49439 2.7987 2.69439C2.7987 2.79439 2.6987 2.79439 2.6987 2.89439C2.6987 3.19439 2.7987 3.49439 2.7987 3.89439C2.4987 3.89439 2.4987 4.19439 2.1987 4.09439C2.1987 3.69439 1.9987 3.49438 2.0987 2.99438ZM2.1987 6.29439V4.69439C2.3987 4.49439 2.5987 4.29439 2.7987 4.19439C3.0987 4.69439 2.9987 5.59439 3.2987 6.09439C2.8987 6.19439 2.4987 6.19439 2.1987 6.29439ZM20.3987 17.3944C20.2987 18.3944 20.1987 19.3944 19.9987 20.1944C17.0987 20.2944 13.9987 20.1944 11.0987 20.3944C10.8987 20.3944 10.7987 20.3944 10.8987 20.1944C10.5987 20.1944 10.5987 20.3944 10.3987 20.3944C10.5987 20.0944 10.7987 19.4944 10.5987 19.0944C9.79871 19.0944 9.7987 19.8944 9.4987 20.3944C8.7987 20.2944 8.3987 20.4944 7.6987 20.4944C7.8987 19.7944 8.39871 19.4944 8.5987 18.7944C8.1987 18.2944 7.5987 18.8944 7.3987 19.2944C7.1987 19.7944 6.7987 20.0944 6.5987 20.5944H5.5987C5.7987 20.0944 6.0987 19.6944 6.3987 19.1944C6.5987 18.6944 6.9987 18.4944 7.0987 17.7944C6.89871 17.4944 6.6987 17.7944 6.3987 17.7944C6.2987 17.9944 6.0987 18.0944 5.9987 18.2944C5.7987 18.6944 5.4987 18.9944 5.2987 19.3944C5.0987 19.5944 4.9987 19.3944 4.7987 19.5944C4.3987 19.8944 4.1987 20.2944 3.7987 20.5944C3.5987 20.4944 3.7987 20.1944 3.9987 20.1944C3.9987 19.9944 3.8987 19.6944 4.0987 19.5944C4.1987 19.1944 4.2987 18.9944 4.4987 18.6944C4.5987 17.9944 4.9987 17.4944 5.1987 16.7944C4.5987 16.8944 4.4987 17.3944 4.1987 17.7944C3.9987 18.1944 3.6987 18.5944 3.4987 19.0944C3.2987 18.9944 3.4987 18.4944 3.3987 18.2944C3.4987 17.6944 3.6987 17.1944 3.7987 16.5944C3.8987 16.3944 3.9987 16.0944 3.9987 15.7944C4.1987 15.5944 3.9987 15.1944 3.8987 14.9944C3.6987 14.9944 3.4987 15.0944 3.3987 15.2944C3.1987 15.2944 3.1987 15.7944 3.0987 15.5944C3.0987 12.9944 2.5987 10.7944 2.5987 8.19439C2.5987 7.89439 2.3987 7.79438 2.3987 7.49438C3.9987 7.49438 5.4987 7.59439 7.1987 7.69439C7.0987 7.79439 6.9987 7.99439 6.8987 8.09439C6.7987 8.19439 6.6987 8.29439 6.4987 8.39439C5.8987 10.0944 5.4987 12.3944 5.8987 14.5944C6.0987 15.1944 6.4987 15.5944 6.8987 15.9944C7.7987 16.4944 8.4987 17.0944 9.3987 17.6944C11.0987 18.0944 13.1987 18.0944 14.8987 17.6944C15.0987 17.5944 15.3987 17.4944 15.5987 17.2944C16.9987 16.0944 18.3987 14.7944 18.5987 12.3944V10.9944C18.3987 9.39438 17.8987 8.09439 16.8987 7.39439C17.1987 7.19439 17.9987 7.39438 18.5987 7.49438C18.7987 7.49438 18.9987 7.49438 19.2987 7.49438C19.6987 7.49438 20.1987 7.39438 20.6987 7.49438C20.7987 7.69438 20.7987 7.99439 20.8987 8.29439C20.7987 9.99439 20.6987 11.5944 20.6987 13.3944C20.7987 13.8944 20.7987 14.3944 20.8987 14.7944C20.6987 15.5944 20.5987 16.4944 20.3987 17.3944ZM20.7987 6.19439C20.1987 6.09439 19.5987 5.89439 18.8987 5.79439C18.9987 5.49439 19.6987 5.79439 19.8987 5.59439C20.2987 5.39439 20.1987 4.69439 20.1987 4.09439C20.1987 3.79439 20.2987 3.49438 20.2987 2.99438C19.8987 1.99438 18.4987 2.59438 17.3987 2.49438C17.1987 3.19438 16.8987 4.29439 17.0987 5.19439C17.2987 5.69439 18.0987 5.49439 18.5987 5.69439C18.4987 5.99439 17.8987 5.79439 17.5987 5.79439C17.2987 5.69439 16.8987 5.69439 16.5987 5.59439C14.2987 5.69439 12.2987 5.59439 10.0987 5.79439C10.1987 4.59439 10.1987 3.29439 9.9987 2.19439H13.0987C12.7987 2.59439 12.1987 2.69438 11.7987 2.99438C11.3987 3.19438 10.8987 3.49439 10.6987 3.89439C10.8987 3.99439 11.1987 3.69438 11.4987 3.49438C11.8987 3.39438 11.9987 3.09438 12.2987 2.99438C12.6987 2.59438 13.3987 2.39439 13.9987 2.09439C14.3987 2.09439 14.6987 2.09439 14.9987 2.19439C16.2987 2.19439 17.4987 2.29439 18.7987 2.29439C19.3987 2.39439 20.2987 2.39439 20.7987 2.59439C20.8987 2.89439 20.9987 3.19438 21.0987 3.49438C20.9987 4.49438 20.7987 5.29439 20.7987 6.19439ZM14.8987 2.49438C14.9987 2.39438 14.8987 2.39438 14.8987 2.49438V2.49438ZM14.8987 2.49438C14.3987 2.69438 13.8987 2.79439 13.4987 3.19439C13.9987 2.99439 14.5987 2.89438 14.8987 2.49438ZM15.9987 3.09439C16.0987 2.99439 15.9987 2.99439 15.9987 3.09439V3.09439ZM14.1987 3.99438C14.8987 3.79438 15.3987 3.39439 15.8987 3.09439C15.4987 3.09439 15.2987 3.39438 14.8987 3.49438C14.7987 3.69438 14.3987 3.69438 14.1987 3.99438ZM13.4987 3.19439C13.3987 3.19439 13.5987 3.29439 13.4987 3.19439V3.19439ZM12.8987 3.79439C12.9987 3.69439 12.8987 3.69439 12.8987 3.79439V3.79439ZM12.7987 3.89439C12.8987 3.89439 12.8987 3.79439 12.7987 3.89439C12.7987 3.79439 12.7987 3.79439 12.7987 3.89439ZM12.6987 3.89439C12.7987 3.89439 12.7987 3.89439 12.6987 3.89439C12.6987 3.79439 12.6987 3.89439 12.6987 3.89439ZM11.8987 4.49438C12.1987 4.39438 12.4987 4.19439 12.6987 3.89439C12.3987 4.09439 12.0987 4.29438 11.8987 4.49438ZM14.1987 5.49438C14.6987 5.49438 14.8987 5.09438 15.3987 4.99438C15.6987 4.69438 16.1987 4.59439 16.3987 4.19439C15.7987 4.19439 15.5987 4.59439 15.1987 4.69439C14.8987 5.09439 14.3987 5.19438 14.1987 5.49438ZM11.8987 4.49438C11.5987 4.49438 11.8987 4.79438 11.8987 4.49438V4.49438ZM11.2987 4.89439C11.3987 4.89439 11.4987 4.89439 11.2987 4.89439C11.3987 4.79439 11.2987 4.89439 11.2987 4.89439ZM14.1987 5.49438C13.9987 5.59438 14.1987 5.59438 14.1987 5.49438V5.49438ZM12.9987 7.29439C12.7987 7.09439 12.2987 7.09439 11.9987 6.89439C11.2987 6.89439 10.7987 6.99439 10.2987 7.09439C9.9987 7.29439 9.6987 7.39439 9.3987 7.59439C9.0987 7.79439 8.9987 7.99439 8.5987 8.09439C8.39871 8.29439 8.1987 8.59439 7.8987 8.69439C7.8987 8.89439 7.6987 8.99439 7.5987 9.09439C7.4987 9.19439 7.4987 9.39438 7.3987 9.49438C7.3987 9.59439 7.3987 9.79439 7.2987 9.79439C7.3987 11.2944 7.5987 12.6944 7.9987 13.9944C8.2987 14.5944 8.9987 14.7944 9.3987 15.2944C9.9987 15.5944 10.6987 15.6944 11.4987 15.7944C11.7987 15.6944 12.0987 15.6944 12.3987 15.6944C13.5987 15.4944 14.4987 14.9944 15.1987 14.2944C15.2987 13.9944 15.4987 13.7944 15.6987 13.5944C15.3987 12.8944 15.9987 12.4944 16.1987 11.9944C16.1987 10.6944 15.9987 9.49439 15.5987 8.59439C15.2987 7.99439 14.6987 7.79438 14.1987 7.49438C14.0987 7.49438 13.9987 7.49439 13.9987 7.39439C13.7987 7.29439 13.2987 7.19439 12.9987 7.29439ZM9.59871 11.6944C9.4987 11.5944 9.4987 11.4944 9.3987 11.2944C9.6987 11.1944 9.59871 11.4944 9.59871 11.6944ZM9.6987 11.9944C9.6987 11.8944 9.7987 11.9944 9.6987 11.9944C9.6987 12.1944 9.6987 12.0944 9.6987 11.9944ZM10.0987 9.89439C10.0987 9.79439 10.1987 9.89439 10.0987 9.89439C10.1987 9.99439 10.0987 9.99439 10.0987 9.89439ZM11.7987 7.79439C11.5987 8.09439 11.7987 8.39439 11.8987 8.59439C11.5987 8.59439 11.2987 7.79439 11.7987 7.79439ZM12.1987 11.6944C12.0987 11.6944 12.1987 11.6944 12.1987 11.6944C12.2987 11.6944 12.1987 11.7944 12.1987 11.6944ZM12.8987 14.5944C12.8987 14.4944 12.9987 14.5944 13.0987 14.5944C13.0987 14.6944 12.8987 14.6944 12.8987 14.5944ZM15.0987 12.0944C14.8987 11.9944 14.9987 12.2944 14.6987 12.2944C14.7987 12.0944 14.7987 11.9944 14.8987 11.7944C15.0987 11.7944 15.1987 11.8944 15.0987 12.0944ZM13.9987 8.29439C14.1987 8.39439 14.3987 8.49439 14.5987 8.69439C14.6987 8.89439 14.7987 9.09439 14.9987 9.19439C15.0987 9.99439 15.1987 10.6944 15.1987 11.5944C14.8987 11.6944 14.7987 11.8944 14.4987 11.9944C13.6987 11.9944 13.0987 11.7944 12.5987 11.4944C12.3987 11.1944 12.1987 10.9944 12.0987 10.6944V9.59439C12.2987 9.39439 12.3987 9.19438 12.5987 8.99438C12.7987 8.89438 13.0987 8.79439 13.0987 8.39439C13.0987 8.29439 12.9987 8.29439 12.9987 8.19439C13.1987 8.19439 13.1987 8.39439 13.3987 8.39439C13.5987 8.39439 13.6987 8.19439 13.9987 8.29439Z" fill="black"/>
</svg>

<svg width="23" height="22" fill="none" xmlns="http://www.w3.org/2000/svg"><path d="M22.6 12.7c0-2.4-.3-4.8-.3-7.1 0-.8-.1-1.5-.2-2.3-.1-.3-.1-.7-.2-1.1-.3-.2-.2-.6-.5-.8-.4-.2-1.2-.1-1.7-.2-.7 0-1.3-.1-1.9-.2-1.9-.1-4-.1-6-.1S7.8.8 6.1.5H3.9c-.1 0-.1.1-.2.1-.6 0-1.1.2-1.6.3-.2.1-.4.2-.7.3-.1.2-.5.1-.6.4-.2.2.2.5 0 .6v.9c.2.1 0 .6.1.8v1c0 1.3.1 2.4.1 3.7.5 2.8.4 6.5.1 9.4.2.6.4 1.1.5 1.7.3.5.3 1.1.7 1.5.5.2 1.2.2 1.9.2.4.1.7.3 1.1.3 2.8-.2 5.5-.2 8.4-.2 2.7.2 5.8.2 8.3-.2.2-.1.1-.5.2-.8-.1-.4.2-.4.2-.8.2-2.1.2-4.5.2-7zm-13-6.2c.8-.2 1.5-.3 2.4-.3.7.1 1.3.3 1.9.5.1.2-.2.5.2.7.1 0 .1 0 .2.1.4 0 .8.2 1.1.4.5.1.5.5 1.1.4-.1.2-.1.5-.1.8.3 1.2.5 2.8.3 4.3-.2.2-.2.4-.3.7-.3.3-.5.8-.8 1.1-.1.2-.3.4-.5.5-.1.2-.2.5-.5.5-.3.2-.6 0-.8-.1-.4.2-.9.3-1.2.6l-2.4-.3c-.2-.1-.5-.3-.8-.3-.2-.2-.5-.4-.8-.5-.1-.1-.3-.1-.5-.2-.2 0-.2-.2-.5-.2-.1-.4-.4-.6-.5-1.1-.2-.3-.3-.8-.5-1.2 0-1.4.1-2.7.4-3.8.3-.6.8-1.1 1.1-1.7.2 0 .4-.1.4-.3.3.1.4-.1.7-.1.2 0 .2-.3.4-.5zM7.9 3.8c-.1-.3-.1-.7-.1-1.1 0-.3.3-.3.3-.5 0-.1-.1-.1-.2-.1.1-.1.7-.1.8 0 .1.5-.4.5-.5.7 0 .2.3 0 .5.1 0 .9-.1 1.5 0 2.2h-.5c0 .2.2.2.5.2-.1.3.1.4.1.6-.2.2-.7 0-1.1.1 0-.6.3-1.4.2-2.2zm-.7-1.6c.1 0 .1 0 .2.1.2.3 0 .7-.1.9-.2-.2 0-.7-.1-1zM7.4 4c-.1-.1-.2-.2-.2-.5.2.1.2.3.2.5zm0 1.4c-.1.1-.1 0-.1-.2.1-.1.1.1.1.2zm-.2.2c.2 0 .1.2.2.2 0 .2-.3.2-.4.1.1-.1.2-.2.2-.3zM4.9 4.4c0-.1 0-.2-.1-.2-.1-.7.1-1.4 0-2 .3-.2.8 0 1.1-.1v1.1c-.1.1-.2.1-.4.1-.1.3.3.1.4.3 0 .9-.1 1.8.2 2.4-.6-.1-.9.1-1.4.1.1-.6 0-1.4.5-1.6 0-.1-.3 0-.3-.1zm-.5 0c-.2 0-.2-.5-.1-.6.3 0 .2.5.1.6zm-.2 1c.1-.3 0-.3.1-.7.2 0 .2.8-.1.7zm.2-2.1c-.3.1-.3-.3-.2-.4.3 0 .4.3.2.4zm0-1.1c0 .2-.1.2-.1.3-.2 0-.1-.2-.2-.2.1-.1.2-.1.3-.1zm-.2 3.7c.1 0 .1.3-.1.2.1 0 .1-.1.1-.2zm-.7-3.7c0 .3-.4.3-.4 0h.4zm-1 .1c0 .2-.3.2-.4.4-.2-.2.1-.5.4-.4zm-.4.7c.2-.2.5-.4.7-.6 0-.1.1-.1.1-.2h.2c.1.4-.3.3-.3.5 0 .1-.1.1-.1.2 0 .3.1.6.1 1-.3 0-.3.3-.6.2 0-.4-.2-.6-.1-1.1zm.1 3.3V4.7c.2-.2.4-.4.6-.5.3.5.2 1.4.5 1.9-.4.1-.8.1-1.1.2zm18.2 11.1c-.1 1-.2 2-.4 2.8-2.9.1-6 0-8.9.2-.2 0-.3 0-.2-.2-.3 0-.3.2-.5.2.2-.3.4-.9.2-1.3-.8 0-.8.8-1.1 1.3-.7-.1-1.1.1-1.8.1.2-.7.7-1 .9-1.7-.4-.5-1 .1-1.2.5-.2.5-.6.8-.8 1.3h-1c.2-.5.5-.9.8-1.4.2-.5.6-.7.7-1.4-.2-.3-.4 0-.7 0-.1.2-.3.3-.4.5-.2.4-.5.7-.7 1.1-.2.2-.3 0-.5.2-.4.3-.6.7-1 1-.2-.1 0-.4.2-.4 0-.2-.1-.5.1-.6.1-.4.2-.6.4-.9.1-.7.5-1.2.7-1.9-.6.1-.7.6-1 1-.2.4-.5.8-.7 1.3-.2-.1 0-.6-.1-.8.1-.6.3-1.1.4-1.7.1-.2.2-.5.2-.8.2-.2 0-.6-.1-.8-.2 0-.4.1-.5.3-.2 0-.2.5-.3.3 0-2.6-.5-4.8-.5-7.4 0-.3-.2-.4-.2-.7 1.6 0 3.1.1 4.8.2-.1.1-.2.3-.3.4-.1.1-.2.2-.4.3-.6 1.7-1 4-.6 6.2.2.6.6 1 1 1.4.9.5 1.6 1.1 2.5 1.7 1.7.4 3.8.4 5.5 0 .2-.1.5-.2.7-.4 1.4-1.2 2.8-2.5 3-4.9V11c-.2-1.6-.7-2.9-1.7-3.6.3-.2 1.1 0 1.7.1h.7c.4 0 .9-.1 1.4 0 .1.2.1.5.2.8-.1 1.7-.2 3.3-.2 5.1.1.5.1 1 .2 1.4-.2.8-.3 1.7-.5 2.6zm.4-11.2c-.6-.1-1.2-.3-1.9-.4.1-.3.8 0 1-.2.4-.2.3-.9.3-1.5 0-.3.1-.6.1-1.1-.4-1-1.8-.4-2.9-.5-.2.7-.5 1.8-.3 2.7.2.5 1 .3 1.5.5-.1.3-.7.1-1 .1-.3-.1-.7-.1-1-.2-2.3.1-4.3 0-6.5.2.1-1.2.1-2.5-.1-3.6h3.1c-.3.4-.9.5-1.3.8-.4.2-.9.5-1.1.9.2.1.5-.2.8-.4.4-.1.5-.4.8-.5.4-.4 1.1-.6 1.7-.9.4 0 .7 0 1 .1 1.3 0 2.5.1 3.8.1.6.1 1.5.1 2 .3l.3.9c-.1 1-.3 1.8-.3 2.7zm-5.9-3.7c.1-.1 0-.1 0 0zm0 0c-.5.2-1 .3-1.4.7.5-.2 1.1-.3 1.4-.7zm1.1.6c.1-.1 0-.1 0 0zm-1.8.9c.7-.2 1.2-.6 1.7-.9-.4 0-.6.3-1 .4-.1.2-.5.2-.7.5zm-.7-.8c-.1 0 .1.1 0 0zm-.6.6c.1-.1 0-.1 0 0zm-.1.1c.1 0 .1-.1 0 0 0-.1 0-.1 0 0zm-.1 0c.1 0 .1 0 0 0 0-.1 0 0 0 0zm-.8.6c.3-.1.6-.3.8-.6-.3.2-.6.4-.8.6zm2.3 1c.5 0 .7-.4 1.2-.5.3-.3.8-.4 1-.8-.6 0-.8.4-1.2.5-.3.4-.8.5-1 .8zm-2.3-1c-.3 0 0 .3 0 0zm-.6.4c.1 0 .2 0 0 0 .1-.1 0 0 0 0zm2.9.6c-.2.1 0 .1 0 0zM13 7.3c-.2-.2-.7-.2-1-.4-.7 0-1.2.1-1.7.2-.3.2-.6.3-.9.5-.3.2-.4.4-.8.5-.2.2-.4.5-.7.6 0 .2-.2.3-.3.4-.1.1-.1.3-.2.4 0 .1 0 .3-.1.3.1 1.5.3 2.9.7 4.2.3.6 1 .8 1.4 1.3.6.3 1.3.4 2.1.5.3-.1.6-.1.9-.1 1.2-.2 2.1-.7 2.8-1.4.1-.3.3-.5.5-.7-.3-.7.3-1.1.5-1.6 0-1.3-.2-2.5-.6-3.4-.3-.6-.9-.8-1.4-1.1-.1 0-.2 0-.2-.1-.2-.1-.7-.2-1-.1zm-3.4 4.4c-.1-.1-.1-.2-.2-.4.3-.1.2.2.2.4zm.1.3c0-.1.1 0 0 0 0 .2 0 .1 0 0zm.4-2.1c0-.1.1 0 0 0 .1.1 0 .1 0 0zm1.7-2.1c-.2.3 0 .6.1.8-.3 0-.6-.8-.1-.8zm.4 3.9c-.1 0 0 0 0 0 .1 0 0 .1 0 0zm.7 2.9c0-.1.1 0 .2 0 0 .1-.2.1-.2 0zm2.2-2.5c-.2-.1-.1.2-.4.2.1-.2.1-.3.2-.5.2 0 .3.1.2.3zM14 8.3c.2.1.4.2.6.4.1.2.2.4.4.5.1.8.2 1.5.2 2.4-.3.1-.4.3-.7.4-.8 0-1.4-.2-1.9-.5-.2-.3-.4-.5-.5-.8V9.6c.2-.2.3-.4.5-.6.2-.1.5-.2.5-.6 0-.1-.1-.1-.1-.2.2 0 .2.2.4.2s.3-.2.6-.1z" fill="#000"/></svg>
